packages/components/svg/toilet.svg

<?xml version="1.0" encoding="UTF-8"?>
<svg width="24px" height="24px" viewBox="0 0 24 24" version="1.1" xmlns="http://www.w3.org/2000/svg" xmlns:xlink="http://www.w3.org/1999/xlink">
    <!-- Generator: Sketch 52.5 (67469) - http://www.bohemiancoding.com/sketch -->
    <title>Toilet</title>
    <desc>Created with Sketch.</desc>
    <g id="Icons" stroke="none" stroke-width="1" fill="none" fill-rule="evenodd">
        <g id="Toilet/Open" fill="#FFFFFF">
            <path d="M8.12261848,11.4476765 C7.31701199,11.2595642 6.69037416,10.5832736 6.5916738,9.72974505 L6.0134837,4.72974505 C5.88659901,3.63248753 6.67324162,2.64012421 7.77049913,2.51323952 C7.84676323,2.50442049 7.92347187,2.5 8.00024418,2.5 L15.9999429,2.5 C17.1045124,2.5 17.9999429,3.3954305 17.9999429,4.5 C17.9999429,4.57677232 17.9955224,4.65348095 17.9867034,4.72974505 L17.4085132,9.72974505 C17.3098102,10.5832972 16.6831405,11.2596015 15.8775019,11.447692 L15.8078819,11.9472658 C17.3849036,12.368894 18.5,13.0886172 18.5,14.1064355 C18.5,16.6044133 16.9964394,18.2979859 14.8176427,19.0529446 L14.7361066,20.638025 C14.6672385,21.1322028 14.2446312,21.5 13.7456778,21.5 L10.2544448,21.5 C9.75549137,21.5 9.33288407,21.1322028 9.26401602,20.638025 L9.18248611,19.0529892 C7.00361987,18.2980526 5.5,16.6044625 5.5,14.1064355 C5.5,13.0885918 6.61515209,12.368858 8.19223628,11.9472342 L8.12261848,11.4476765 Z M12,15 C9.51471863,15 7.5,14.5522847 7.5,14 C7.5,13.4477153 9.51471863,13 12,13 C14.4852814,13 16.5,13.4477153 16.5,14 C16.5,14.5522847 14.4852814,15 12,15 Z M8.5,4 L10.5,4 C11.0522847,4 11.5,4.44771525 11.5,5 C11.5,5.55228475 11.0522847,6 10.5,6 L8.5,6 C7.94771525,6 7.5,5.55228475 7.5,5 C7.5,4.44771525 7.94771525,4 8.5,4 Z" id="Combined-Shape"></path>
        </g>
    </g>
</svg>

<svg width="24" height="24" xmlns="http://www.w3.org/2000/svg"><path d="M8.123 11.448A2 2 0 0 1 6.592 9.73l-.579-5A2 2 0 0 1 8 2.5h8a2 2 0 0 1 1.987 2.23l-.578 5a2 2 0 0 1-1.531 1.718l-.07.5c1.577.42 2.692 1.14 2.692 2.158 0 2.498-1.504 4.192-3.682 4.947l-.082 1.585a1 1 0 0 1-.99.862h-3.492a1 1 0 0 1-.99-.862l-.082-1.585C7.004 18.298 5.5 16.604 5.5 14.106c0-1.017 1.115-1.737 2.692-2.159l-.07-.5zM12 15c2.485 0 4.5-.448 4.5-1s-2.015-1-4.5-1-4.5.448-4.5 1 2.015 1 4.5 1zM8.5 4a1 1 0 1 0 0 2h2a1 1 0 0 0 0-2h-2z"/></svg>
